!!!OTL: COELN IST EINE SCHOENE STADT
!!!ARE: Europa, Mitteleuropa, Deutschland, Nassau, Kreis Wetzlar; Dillkreis
!!!SCT: E0061J
!!!YEM: Copyright 1995, estate of Helmut Schaffrath.
**kern
*ICvox
*Ivox
*M3/4
*k[f#]
*G:
{8d
=1
8g
8g
4g
4b
=2
8dd
8b
4.a}
{16b
16a
=3
8g
8f#
4g
4b
=4
4b
4a
8r}
{8cc
=5
8b
8ee
4.dd
8dd
=6
8dd
16dd
16cc
4.b}
{8b
=7
8a
8dd
4cc
8b
8dd
=8
4a
4g
8r}
==
!!!AGN: erzaehlendes Volks - Lied, Sage, Mord, Ballade ?
!!!ONB: ESAC (Essen Associative Code) Database: ERK1
!!!AMT: simple triple
!!!AIN: vox
!!!EED: Helmut Schaffrath
!!!EEV: 1.0
*-
